X:1
L:1/16
M:2/4
K:A
 (E2>D2) | (3CDE (3DCB,2 A,>CE>A | (3GAB (3AGF E>GB>d | c>eA>e (3aed (3cBA | 
 (3Bcd (3cBA (3GFE (3DCB, | (3CDE (3DCB,2 A,>CE>A | (3GAB (3AGF E>GB>d | 
 (3ced (3cBA (3GFE (3DCB,2 | A2d2A2 :| G>A | (3BcB (3AGF E>GB>d | A>ce>g a>ec>A | 
 (3fed (3edc (3dcB (3cBA | (3Bcd (3cBA (3GFE (3DCB, | (3CDE (3DCB, A,>CE>A | (3GAB (3AGF E>GB>d | 
 (3ced (3cBA (3GFE (3DCB, | A2d2A2 ||"
